outputs/icons/file/create_new_folder_sharp.svg

<svg xmlns="http://www.w3.org/2000/svg" width="1200" height="1200" fill="none"><g clip-path="url(#a)"><path fill="#000" d="M1100 300H600L500 200H100v800h1000zM950 700H800v150H700V700H550V600h150V450h100v150h150z"/></g><defs><clipPath id="a"><path fill="#fff" d="M0 0h1200v1200H0z"/></clipPath></defs></svg>

<svg width="1200" height="1200" viewBox="0 0 1200 1200" fill="none" xmlns="http://www.w3.org/2000/svg"><g clip-path="url(#clip0_124_965)"><path d="M1100 300H600L500 200H100V1000H1100V300ZM950 700H800V850H700V700H550V600H700V450H800V600H950V700Z" fill="#1D1E23"/></g><defs><clipPath id="clip0_124_965"><path width="24" fill="white" d="M0 0H1200V1200H0V0z"/></clipPath></defs></svg>
